proprietary/assets/icons/vervoersmiddelen/trein-met-stapel-munten.svg

<svg height="64" viewBox="0 0 64 64" width="64" xmlns="http://www.w3.org/2000/svg"><path d="m0 0h64v64h-64z" fill="none"/><path d="m12.0002 61h6l1.0225-5.1126c-1.9041-.3669-3.5695-.8895-5.0284-1.5344z"/><path d="m45.3807 31.9114.6146-15.7836c.043-1.104-.1885-2.1899-.6767-3.1552-1.4688-2.8998-4.7462-9.1636-5.9922-9.8658-1.5801-.8895-8.1905-1.1068-13.3262-1.1068-5.1367 0-11.7461.2173-13.3262 1.1069-1.2469.7022-4.5234 6.9659-5.9922 9.8658-.4882.9653-.7197 2.0512-.6767 3.1552l.8955 22.9971c.5078 13.0649 11.6914 14.875 19.0996 14.875.641 0 1.3116-.0149 1.9998-.0481 0-4.3137 0-6.6239 0-11.2853 0-6.081 7.309-10.7666 17.0012-10.7666.1286 0 .2518.0098.3795.0114zm-19.3805-25.0614c1.7401 0 3.15 1.4104 3.15 3.15 0 1.7395-1.4099 3.15-3.15 3.15s-3.15-1.4105-3.15-3.15c0-1.7396 1.4099-3.15 3.15-3.15zm-9 36.3c-1.7401 0-3.15-1.4105-3.15-3.15 0-1.7396 1.4099-3.15 3.15-3.15s3.15 1.4104 3.15 3.15c-.0001 1.7395-1.4099 3.15-3.15 3.15zm23.6015-25.8561-3.3848 11c-.1288.42-.5165.7061-.955.7061h-20.5234c-.4385 0-.8262-.2861-.9551-.7061l-3.3848-11c-.1982-.643.2832-1.2939.9551-1.2939h27.293c.6719 0 1.1533.6509.955 1.2939z"/><path d="m45.0012 54c7.8499 0 13.9988-3.3747 13.9988-7.6786 0-.6324 0-3.0202 0-3.6548 0-4.2993-6.1489-7.6666-13.9988-7.6666-7.852 0-14.0012 3.3673-14.0012 7.6666v3.6548c0 .9494.3142 1.8492.865 2.6819-.553.8255-.865 1.7191-.865 2.6633v3.6548c0 4.3039 6.1492 7.6786 14.0012 7.6786 7.8499 0 13.9988-3.3747 13.9988-7.6786v-3.6548c0-.2049-.0266-.4056-.0542-.606-.7144.8958-4.5718 5.1376-13.6127 5.1376-8.0173 0-10.7806-3.8577-11.0667-4.3807-.117-.2137-.2019-.4362-.0766-.5667 2.5482 1.6889 6.4118 2.7492 10.8114 2.7492zm-11.3-11c0-2.8444 5.06-5.15 11.302-5.15 6.2419 0 11.302 2.3056 11.302 5.15 0 2.8443-5.0601 5.15-11.302 5.15-6.242 0-11.302-2.3057-11.302-5.15z"/><path d="m42.8542 44.7261v.6765h1.5551v-.5565c.3053.0191.6703.0191 1.016.0191h.384v.5374h1.5169v-.6165c2.7834-.2999 4.1093-1.2644 4.1093-2.6701 0-.547-.0571-.7846-.3076-1.3435h-2.0559c.2123.5182.2886.7773.2886 1.2546 0 .6166-.5938 1.1155-2.0344 1.334v-1.7634h-1.5169v1.8928c-.1906.0096-.384.0194-.6128.0194-.2696 0-.52-.0098-.7872-.0194v-1.8928h-1.5551v1.7539c-1.4023-.209-2.1322-.6575-2.1322-1.3748 0-.4078.0764-.6454.248-1.1539h-2.168c-.1739.427-.2312.7269-.2312 1.1227 0 1.4155 1.4404 2.4206 4.2834 2.7805z"/></svg>

<?xml version="1.0" encoding="utf-8"?>
<!-- Generator: Adobe Illustrator 18.1.0, SVG Export Plug-In . SVG Version: 6.00 Build 0)  -->
<svg version="1.2" baseProfile="tiny" xmlns="http://www.w3.org/2000/svg" xmlns:xlink="http://www.w3.org/1999/xlink" x="0px"
	 y="0px" width="64px" height="64px" viewBox="0 0 64 64" xml:space="preserve">
<g id="Box">
	<rect fill="none" width="64" height="64"/>
</g>
<g id="Icon">
	<g>
		<path d="M12.0002,61h6l1.0225-5.1126c-1.9041-0.3669-3.5695-0.8895-5.0284-1.5344L12.0002,61z"/>
		<path d="M45.3807,31.9114l0.6146-15.7836c0.043-1.104-0.1885-2.1899-0.6767-3.1552c-1.4688-2.8998-4.7462-9.1636-5.9922-9.8658
			C37.7463,2.2173,31.1359,2,26.0002,2C20.8635,2,14.2541,2.2173,12.674,3.1069c-1.2469,0.7022-4.5234,6.9659-5.9922,9.8658
			c-0.4882,0.9653-0.7197,2.0512-0.6767,3.1552L6.9006,39.125C7.4084,52.1899,18.592,54,26.0002,54
			c0.641,0,1.3116-0.0149,1.9998-0.0481c0-4.3137,0-6.6239,0-11.2853C28,36.5856,35.309,31.9,45.0012,31.9
			C45.1298,31.9,45.253,31.9098,45.3807,31.9114z M26.0002,6.85c1.7401,0,3.15,1.4104,3.15,3.15c0,1.7395-1.4099,3.15-3.15,3.15
			s-3.15-1.4105-3.15-3.15C22.8502,8.2604,24.2601,6.85,26.0002,6.85z M17.0002,43.15c-1.7401,0-3.15-1.4105-3.15-3.15
			c0-1.7396,1.4099-3.15,3.15-3.15s3.15,1.4104,3.15,3.15C20.1501,41.7395,18.7403,43.15,17.0002,43.15z M40.6017,17.2939
			l-3.3848,11C37.0881,28.7139,36.7004,29,36.2619,29H15.7385c-0.4385,0-0.8262-0.2861-0.9551-0.7061l-3.3848-11
			C11.2004,16.6509,11.6818,16,12.3537,16h27.293C40.3186,16,40.8,16.6509,40.6017,17.2939z"/>
		<path d="M45.0012,54C52.8511,54,59,50.6253,59,46.3214c0-0.6324,0-3.0202,0-3.6548C59,38.3673,52.8511,35,45.0012,35
			C37.1492,35,31,38.3673,31,42.6666c0,0.6346,0,3.0224,0,3.6548c0,0.9494,0.3142,1.8492,0.865,2.6819
			C31.312,49.8288,31,50.7224,31,51.6666v3.6548C31,59.6253,37.1492,63,45.0012,63C52.8511,63,59,59.6253,59,55.3214v-3.6548
			c0-0.2049-0.0266-0.4056-0.0542-0.606c-0.7144,0.8958-4.5718,5.1376-13.6127,5.1376c-8.0173,0-10.7806-3.8577-11.0667-4.3807
			c-0.117-0.2137-0.2019-0.4362-0.0766-0.5667C36.738,52.9397,40.6016,54,45.0012,54z M33.7012,43c0-2.8444,5.06-5.15,11.302-5.15
			c6.2419,0,11.302,2.3056,11.302,5.15c0,2.8443-5.0601,5.15-11.302,5.15C38.7612,48.15,33.7012,45.8443,33.7012,43z"/>
		<path d="M42.8542,44.7261v0.6765h1.5551v-0.5565c0.3053,0.0191,0.6703,0.0191,1.016,0.0191h0.384v0.5374h1.5169v-0.6165
			c2.7834-0.2999,4.1093-1.2644,4.1093-2.6701c0-0.547-0.0571-0.7846-0.3076-1.3435H49.072
			c0.2123,0.5182,0.2886,0.7773,0.2886,1.2546c0,0.6166-0.5938,1.1155-2.0344,1.334v-1.7634h-1.5169v1.8928
			c-0.1906,0.0096-0.384,0.0194-0.6128,0.0194c-0.2696,0-0.52-0.0098-0.7872-0.0194v-1.8928h-1.5551v1.7539
			c-1.4023-0.209-2.1322-0.6575-2.1322-1.3748c0-0.4078,0.0764-0.6454,0.248-1.1539h-2.168
			c-0.1739,0.427-0.2312,0.7269-0.2312,1.1227C38.5708,43.3611,40.0112,44.3662,42.8542,44.7261z"/>
	</g>
</g>
</svg>
